web/src/assets/svg/logo.svg

<svg fill="none" height="24" viewBox="0 0 24 24" width="24" xmlns="http://www.w3.org/2000/svg"><path d="m0 0h24v24h-24z"/><path d="m12 23.8878c6.6274 0 12-5.3459 12-11.9403 0-6.59447-5.3726-11.94032837-12-11.94032837-6.62742 0-12 5.34585837-12 11.94032837 0 6.5944 5.37258 11.9403 12 11.9403z" fill="#20ba31"/><path clip-rule="evenodd" d="m10.9008 11.3743h-1.8972c-.1824 0-.3516-.0955-.4464-.2507l-2.6784-4.36658c-.0504-.08119-.0768-.17552-.0768-.27104v-.18627c0-.28776.234-.5206.5232-.5206h4.5756c.2892 0 .5232.23284.5232.5206v4.55399c0 .2878-.234.5206-.5232.5206zm1.6752-.5206v-1.88772c0-.1815.0948-.34985.2508-.44537l4.3884-2.66508c.0816-.05015.1764-.07642.2724-.07642h.1872c.2892 0 .5232.23284.5232.5206v4.55399c0 .2878-.234.5206-.5232.5206h-4.5756c-.2892 0-.5232-.2328-.5232-.5206zm-1.152 4.0741v-1.8878c0-.2878-.234-.5206-.5232-.5206h-4.5756c-.2892 0-.5232.2328-.5232.5206v4.5528c0 .2878.234.5206.5232.5206h.1872c.096 0 .1908-.0262.2724-.0764l4.3884-2.665c.156-.0944.2508-.2627.2508-.4442zm1.6752-2.4084h1.8972c.1824 0 .3516.0955.4464.2496l2.6784 4.3665c.0504.0812.0768.1756.0768.2711v.1862c0 .2878-.234.5206-.5232.5206h-4.5756c-.2892 0-.5232-.2328-.5232-.5206v-4.5528c0-.2878.234-.5206.5232-.5206z" fill="#fff" fill-rule="evenodd"/></svg>

<svg width="24" height="24" viewBox="0 0 24 24" fill="none" xmlns="http://www.w3.org/2000/svg">
<rect width="24" height="24"/>
<path d="M12 23.8878C18.6274 23.8878 24 18.5419 24 11.9475C24 5.35303 18.6274 0.00717163 12 0.00717163C5.37258 0.00717163 0 5.35303 0 11.9475C0 18.5419 5.37258 23.8878 12 23.8878Z" fill="#20BA31"/>
<path fill-rule="evenodd" clip-rule="evenodd" d="M10.9008 11.3743H9.0036C8.8212 11.3743 8.652 11.2788 8.5572 11.1236L5.8788 6.75702C5.8284 6.67583 5.802 6.5815 5.802 6.48598V6.29971C5.802 6.01195 6.036 5.77911 6.3252 5.77911H10.9008C11.19 5.77911 11.424 6.01195 11.424 6.29971V10.8537C11.424 11.1415 11.19 11.3743 10.9008 11.3743ZM12.576 10.8537V8.96598C12.576 8.78448 12.6708 8.61613 12.8268 8.52061L17.2152 5.85553C17.2968 5.80538 17.3916 5.77911 17.4876 5.77911H17.6748C17.964 5.77911 18.198 6.01195 18.198 6.29971V10.8537C18.198 11.1415 17.964 11.3743 17.6748 11.3743H13.0992C12.81 11.3743 12.576 11.1415 12.576 10.8537ZM11.424 14.9278V13.04C11.424 12.7522 11.19 12.5194 10.9008 12.5194H6.3252C6.036 12.5194 5.802 12.7522 5.802 13.04V17.5928C5.802 17.8806 6.036 18.1134 6.3252 18.1134H6.5124C6.6084 18.1134 6.7032 18.0872 6.7848 18.037L11.1732 15.372C11.3292 15.2776 11.424 15.1093 11.424 14.9278ZM13.0992 12.5194H14.9964C15.1788 12.5194 15.348 12.6149 15.4428 12.769L18.1212 17.1355C18.1716 17.2167 18.198 17.3111 18.198 17.4066V17.5928C18.198 17.8806 17.964 18.1134 17.6748 18.1134H13.0992C12.81 18.1134 12.576 17.8806 12.576 17.5928V13.04C12.576 12.7522 12.81 12.5194 13.0992 12.5194Z" fill="white"/>
</svg>
